X: 30992
T: COTILLION No. 11. METAMORA SETT tune 5
C:
%R: reel
B: Elias Howe "The Musician's Companion" Part 3 1844 p.99 #2
S: http://imslp.org/wiki/The_Musician's_Companion_(Howe,_Elias)
Z: 2015 John Chambers <jc:trillian.mit.edu>
M: 2/4
L: 1/16
K: A
% - - - - - - - - - - - - - - - - - - - - - - - - - - - - -
e2 |\
b4 gfgb | e4 dcdB | A2A2B2B2 | cBcd e2e2 |\
a4 gfgb | e4 dcdB | A2A2 BABc | A2A2A2 H|]
GABc dBfd | e4 dcBA | GFGA BABc | B2B2 B4 |\
GABc dBfd | e4 dcBA | afba  gfe^d | e3e d>ef>"^D.C."g |]
c4 dcBc | A2AA e4 | f2e2d2c2 | e3c B4 |\
c4 dcBc | A2AA a4 | f2f2 b2b2 | e4 ^d>ef>"^D.C."g |]
% - - - - - - - - - - Dance description - - - - - - - - - -
%%begintext align
%% First 4 right and left,
%% balance,
%% turn partners.
%%endtext
% - - - - - - - - - - - - - - - - - - - - - - - - - - - - -
%%sep 1 1 300
